Yaru++/status/scalable/folder-drag-accept.svg

<svg height="256" viewBox="0 0 67.73 67.73" width="256" xmlns="http://www.w3.org/2000/svg" xmlns:xlink="http://www.w3.org/1999/xlink">
  <linearGradient id="linearGradient1361">
    <stop offset="0" stop-color="#fff"/>
    <stop offset="1" stop-color="#fff" stop-opacity=".203922"/>
  </linearGradient>
  <radialGradient id="radialGradient1363-3-3" cx="148" cy="39.684" gradientTransform="matrix(.26457031 0 0 .06723143 -6.159197 22.934803)" gradientUnits="userSpaceOnUse" r="112" xlink:href="#linearGradient1361"/>
  <radialGradient id="radialGradient2373-6" cx="152" cy="-.126" gradientTransform="matrix(.26457031 0 0 .06959366 -6.159197 7.620768)" gradientUnits="userSpaceOnUse" r="112" xlink:href="#linearGradient1361"/>
  <linearGradient id="linearGradient2371-7" gradientUnits="userSpaceOnUse" x1="38.2885730802" x2="38.2885730802" y1="20.31141260784" y2="60.52606608">
    <stop offset="0" stop-color="#f3994a"/>
    <stop offset="1" stop-color="#f6b069"/>
  </linearGradient>
  <clipPath id="clipPath977">
    <path d="m78.994141 52c-35.36853 0-38.994141 1.999146-38.994141 37.296875v50.703125h224v-31.07812c0-35.297735-3.62561-40.92188-38.99414-40.92188h-87.00586l-16-16z"/>
  </clipPath>
  <filter id="filter989-5" color-interpolation-filters="sRGB" height="1.136" width="1.107" x="-.05" y="-.07">
    <feGaussianBlur stdDeviation="5"/>
  </filter>
  <linearGradient id="linearGradient2369-3" gradientUnits="userSpaceOnUse" x1="236.72" x2="20.72" y1="213.228801" y2="13.228801">
    <stop offset="0"/>
    <stop offset=".159" stop-opacity=".4329"/>
    <stop offset=".194" stop-opacity=".099567"/>
    <stop offset="1" stop-opacity="0"/>
  </linearGradient>
  <filter id="filter1067" color-interpolation-filters="sRGB" height="1.127" width="1.114" x="-.06" y="-.06">
    <feGaussianBlur stdDeviation="5.3"/>
  </filter>
  <filter id="filter959-5" color-interpolation-filters="sRGB" height="1.025" width="1.023" x="-.01" y="-.01">
    <feGaussianBlur stdDeviation="1.06"/>
  </filter>
  <path d="m51.714141 15.228801c-35.36853 0-38.994141 1.99915-38.994141 37.29687v41.62501 9.078119 73.07812c0 35.29774 3.625611 38.92188 38.994141 38.92188h146.011719c35.36853 0 38.99414-3.62414 38.99414-38.92188v-73.07812-25.078119-6c0-35.29774-3.62561-40.92188-38.99414-40.92188h-87.00586l-16-16z" filter="url(#filter959-5)" opacity=".1" transform="matrix(.26457031 0 0 .26457031 1.058281 1.995496)"/>
  <path d="m51.714141 14.228801c-35.36853 0-38.994141 1.99915-38.994141 37.29687v41.62501 60.656239 29.5c0 35.29774 3.625611 38.92188 38.994141 38.92188h146.011719c35.36853 0 38.99414-3.62414 38.99414-38.92188v-29.5-76.656239-6c0-35.29774-3.62561-40.92188-38.99414-40.92188h-87.00586l-16-16z" filter="url(#filter959-5)" opacity=".1" transform="matrix(.26457031 0 0 .26457031 1.058281 1.995496)"/>
  <path d="m51.714141 13.228801c-35.36853 0-38.994141 1.99915-38.994141 37.29687v41.62501 9.078119 81.07812c0 35.29774 3.625611 38.92188 38.994141 38.92188h146.011719c35.36853 0 38.99414-3.62414 38.99414-38.92188v-81.07812-25.078119-6c0-35.29774-3.62561-40.92188-38.99414-40.92188h-87.00586l-16-16z" fill="url(#linearGradient2369-3)" filter="url(#filter1067)" opacity=".4" transform="matrix(.26457031 0 0 .26457031 1.058281 1.995496)"/>
  <path d="m14.740307 5.4954434c-9.3574623 0-10.3166913.528916-10.3166913 9.8676436v23.997356h59.2637493v-18.805161c0-9.338734-.959228-10.8267136-10.316691-10.8267136h-23.019168l-4.233125-4.233125z" fill="#ec7223"/>
  <path clip-path="url(#clipPath977)" d="m78.99353 124c-35.36853 0-38.99353 3.625-38.99353 38.92273v50.15454c0 35.29773 3.625 38.92273 38.99353 38.92273h146.01294c35.36853 0 38.99353-3.625 38.99353-38.92273v-66.15454c0-35.29773-3.625-38.92273-38.99353-38.92273h-81.25647l-16.00782 16z" fill="#903906" filter="url(#filter989-5)" opacity=".5" transform="matrix(.26457031 0 0 .26457031 -6.159197 -6.145651)"/>
  <path d="m14.740146 26.661067c-9.3574629 0-10.3165303.959067-10.3165303 10.2978v13.269402c0 9.338731.9590674 10.297799 10.3165303 10.297799h38.630689c9.357463 0 10.31653-.959068 10.31653-10.297799v-17.502528c0-9.338732-.961901-10.067549-10.31653-10.297799h-21.49805l-4.235194 4.233125z" fill="url(#linearGradient2371-7)"/>
  <path d="m14.740307 5.4954434c-9.3574623 0-10.3166913.528916-10.3166913 9.8676436v.52914c0-9.3387276.959229-9.8676436 10.3166913-9.8676436h11.378074l4.233125 4.2331256h23.019168c9.357463 0 10.316691 1.48798 10.316691 10.826713v-.52914c0-9.338734-.959228-10.8267136-10.316691-10.8267136h-23.019168l-4.233125-4.233125z" fill="url(#radialGradient2373-6)" opacity=".4"/>
  <path d="m63.687365 43.064427-16.9325 16.9325h6.615809c9.357463 0 10.316691-.95884 10.316691-10.297574z" fill="#fff" opacity=".1"/>
  <path d="m4.4236157 49.699353v.529141c0 9.338734.959229 10.297574 10.3166913 10.297574h38.630367c9.357463 0 10.316691-.95884 10.316691-10.297574v-.529141c0 9.338734-.959228 10.297574-10.316691 10.297574h-38.630367c-9.3574623 0-10.3166913-.95884-10.3166913-10.297574z" fill="#491706" opacity=".2"/>
  <path d="m31.872785 22.427942-4.235191 4.233125h-12.897287c-9.3574628 0-10.3166919.958843-10.3166919 10.297575v.52914c0-9.338732.9592291-10.297574 10.3166919-10.297574h12.897287l4.235191-4.233125h21.497889c9.357463 0 10.316691.958839 10.316691 10.297574v-.529141c0-9.338734-.959228-10.297574-10.316691-10.297574z" fill="url(#radialGradient1363-3-3)" opacity=".4"/>
</svg>

<svg xmlns="http://www.w3.org/2000/svg" xmlns:xlink="http://www.w3.org/1999/xlink" width="256" height="256" version="1.1" viewBox="0 0 67.73 67.73">
 <defs>
  <radialGradient id="radialGradient1363-3" cx="148" cy="39.684" r="112" gradientTransform="matrix(.26458333 0 0 .06723474 -6.4240841 251.45221)" gradientUnits="userSpaceOnUse" xlink:href="#linearGradient1361"/>
  <linearGradient id="linearGradient1361">
   <stop style="stop-color:#ffffff" id="stop3" offset="0"/>
   <stop style="stop-color:#ffffff;stop-opacity:.20392157" id="stop5" offset="1"/>
  </linearGradient>
  <radialGradient id="radialGradient2373" cx="152" cy="-.126" r="112" gradientTransform="matrix(.26458333 0 0 .06959709 -6.4240831 236.13742)" gradientUnits="userSpaceOnUse" xlink:href="#linearGradient1361"/>
  <linearGradient id="linearGradient2371" x1="291.31" x2="291.31" y1="138.552" y2="474" gradientTransform="matrix(.11988932 0 0 .11988932 3.1009165 232.21778)" gradientUnits="userSpaceOnUse">
   <stop style="stop-color:#fb7c38" id="stop9" offset="0"/>
   <stop style="stop-color:#fda463" id="stop11" offset="1"/>
  </linearGradient>
  <clipPath id="clipPath977-1">
   <path style="fill:#f6531e" d="M 78.994141,52 C 43.625611,52 40,53.999146 40,89.296875 V 140 H 264 V 108.92188 C 264,73.624145 260.37439,68 225.00586,68 H 138 L 122,52 Z"/>
  </clipPath>
  <filter id="filter989" width="1.107" height="1.136" x="-.05" y="-.07" style="color-interpolation-filters:sRGB">
   <feGaussianBlur id="feGaussianBlur17" stdDeviation="5"/>
  </filter>
  <linearGradient id="linearGradient2369" x1="264" x2="48" y1="252" y2="52" gradientTransform="translate(-27.28,-38.771199)" gradientUnits="userSpaceOnUse">
   <stop style="stop-color:#000000" id="stop20" offset="0"/>
   <stop style="stop-color:#000000;stop-opacity:.43290043" id="stop22" offset=".159"/>
   <stop style="stop-color:#000000;stop-opacity:.0995671" id="stop24" offset=".194"/>
   <stop style="stop-color:#000000;stop-opacity:0" id="stop26" offset="1"/>
  </linearGradient>
  <filter id="filter959" width="1.023" height="1.025" x="-.01" y="-.01" style="color-interpolation-filters:sRGB">
   <feGaussianBlur id="feGaussianBlur29" stdDeviation="1.06"/>
  </filter>
  <filter id="filter1344" width="1.023" height="1.025" x="-.01" y="-.01" style="color-interpolation-filters:sRGB">
   <feGaussianBlur id="feGaussianBlur32" stdDeviation="1.06"/>
  </filter>
  <radialGradient id="radialGradient1363-3-3" cx="148" cy="39.684" r="112" fx="148" fy="39.684" gradientTransform="matrix(0.26457031,0,0,0.06723143,-6.1591973,22.934803)" gradientUnits="userSpaceOnUse" xlink:href="#linearGradient1361"/>
  <radialGradient id="radialGradient2373-6" cx="152" cy="-.126" r="112" fx="152" fy="-.126" gradientTransform="matrix(0.26457031,0,0,0.06959366,-6.1591968,7.6207684)" gradientUnits="userSpaceOnUse" xlink:href="#linearGradient1361"/>
  <linearGradient id="linearGradient2371-7" x1="291.31" x2="291.31" y1="138.552" y2="474" gradientTransform="matrix(0.11988342,0,0,0.11988342,3.3653344,3.7013254)" gradientUnits="userSpaceOnUse" xlink:href="#linearGradient3602"/>
  <linearGradient id="linearGradient3602">
   <stop id="stop3597" offset="0" style="stop-color:#f3994a"/>
   <stop id="stop3599" offset="1" style="stop-color:#f6b069"/>
  </linearGradient>
  <clipPath id="clipPath977" clipPathUnits="userSpaceOnUse">
   <path d="M 78.994141,52 C 43.625611,52 40,53.999146 40,89.296875 V 140 H 264 V 108.92188 C 264,73.624145 260.37439,68 225.00586,68 H 138 L 122,52 Z" style="fill:#f6531e"/>
  </clipPath>
  <filter style="color-interpolation-filters:sRGB" id="filter989-5" width="1.107" height="1.136" x="-.05" y="-.07">
   <feGaussianBlur id="feGaussianBlur991" stdDeviation="5"/>
  </filter>
  <linearGradient id="linearGradient2369-3" x1="264" x2="48" y1="252" y2="52" gradientTransform="translate(-27.28,-38.771199)" gradientUnits="userSpaceOnUse" xlink:href="#linearGradient1055"/>
  <linearGradient id="linearGradient1055">
   <stop style="stop-color:#000000" id="stop1051" offset="0"/>
   <stop id="stop1059" offset=".159" style="stop-color:#000000;stop-opacity:0.43290043"/>
   <stop style="stop-color:#000000;stop-opacity:0.0995671" id="stop1061" offset=".194"/>
   <stop style="stop-color:#000000;stop-opacity:0" id="stop1053" offset="1"/>
  </linearGradient>
  <filter style="color-interpolation-filters:sRGB" id="filter1067" width="1.114" height="1.127" x="-.06" y="-.06">
   <feGaussianBlur id="feGaussianBlur1069" stdDeviation="5.3"/>
  </filter>
  <filter style="color-interpolation-filters:sRGB" id="filter959-5" width="1.023" height="1.025" x="-.01" y="-.01">
   <feGaussianBlur id="feGaussianBlur961" stdDeviation="1.06"/>
  </filter>
  <filter style="color-interpolation-filters:sRGB" id="filter1344-6" width="1.023" height="1.025" x="-.01" y="-.01">
   <feGaussianBlur id="feGaussianBlur1346" stdDeviation="1.06"/>
  </filter>
 </defs>
 <path style="opacity:0.1;filter:url(#filter1344-6)" d="m 51.714141,15.228801 c -35.36853,0 -38.994141,1.99915 -38.994141,37.29687 v 41.62501 9.078119 73.07812 c 0,35.29774 3.625611,38.92188 38.994141,38.92188 H 197.72586 c 35.36853,0 38.99414,-3.62414 38.99414,-38.92188 v -73.07812 -25.078119 -6 c 0,-35.29774 -3.62561,-40.92188 -38.99414,-40.92188 H 110.72 l -16,-16 z" transform="matrix(0.26457031,0,0,0.26457031,1.0582812,1.9954955)"/>
 <path style="opacity:0.1;filter:url(#filter959-5)" d="m 51.714141,14.228801 c -35.36853,0 -38.994141,1.99915 -38.994141,37.29687 v 41.62501 60.656239 29.5 c 0,35.29774 3.625611,38.92188 38.994141,38.92188 H 197.72586 c 35.36853,0 38.99414,-3.62414 38.99414,-38.92188 v -29.5 -76.656239 -6 c 0,-35.29774 -3.62561,-40.92188 -38.99414,-40.92188 H 110.72 l -16,-16 z" transform="matrix(0.26457031,0,0,0.26457031,1.0582812,1.9954955)"/>
 <path d="m 51.714141,13.228801 c -35.36853,0 -38.994141,1.99915 -38.994141,37.29687 v 41.62501 9.078119 81.07812 c 0,35.29774 3.625611,38.92188 38.994141,38.92188 H 197.72586 c 35.36853,0 38.99414,-3.62414 38.99414,-38.92188 v -81.07812 -25.078119 -6 c 0,-35.29774 -3.62561,-40.92188 -38.99414,-40.92188 H 110.72 l -16,-16 z" transform="matrix(0.26457031,0,0,0.26457031,1.0582812,1.9954955)" style="opacity:0.4;fill:url(#linearGradient2369-3);filter:url(#filter1067)"/>
 <path style="fill:#ec7223" d="m 14.740307,5.4954434 c -9.3574623,0 -10.3166913,0.528916 -10.3166913,9.8676436 V 39.360443 H 63.687365 V 20.555282 c 0,-9.338734 -0.959228,-10.8267136 -10.316691,-10.8267136 H 30.351506 l -4.233125,-4.233125 z"/>
 <path style="opacity:0.5;fill:#903906;filter:url(#filter989-5)" d="M 78.99353,124 C 43.625,124 40,127.625 40,162.92273 v 50.15454 C 40,248.375 43.625,252 78.99353,252 H 225.00647 C 260.375,252 264,248.375 264,213.07727 V 146.92273 C 264,111.625 260.375,108 225.00647,108 H 143.75 l -16.00782,16 z" clip-path="url(#clipPath977)" transform="matrix(0.26457031,0,0,0.26457031,-6.1591968,-6.1456506)"/>
 <path d="m 14.740146,26.661067 c -9.3574629,0 -10.3165303,0.959067 -10.3165303,10.2978 v 13.269402 c 0,9.338731 0.9590674,10.297799 10.3165303,10.297799 h 38.630689 c 9.357463,0 10.31653,-0.959068 10.31653,-10.297799 V 32.725741 c 0,-9.338732 -0.961901,-10.067549 -10.31653,-10.297799 h -21.49805 l -4.235194,4.233125 z" style="fill:url(#linearGradient2371-7)"/>
 <path style="opacity:0.4;fill:url(#radialGradient2373-6)" d="m 14.740307,5.4954434 c -9.3574623,0 -10.3166913,0.528916 -10.3166913,9.8676436 v 0.52914 c 0,-9.3387276 0.959229,-9.8676436 10.3166913,-9.8676436 h 11.378074 l 4.233125,4.2331256 h 23.019168 c 9.357463,0 10.316691,1.48798 10.316691,10.826713 v -0.52914 c 0,-9.338734 -0.959228,-10.8267136 -10.316691,-10.8267136 H 30.351506 l -4.233125,-4.233125 z"/>
 <path style="opacity:0.1;fill:#ffffff" d="m 63.687365,43.064427 -16.9325,16.9325 h 6.615809 c 9.357463,0 10.316691,-0.95884 10.316691,-10.297574 z"/>
 <path style="opacity:0.2;fill:#491706" d="m 4.4236157,49.699353 v 0.529141 c 0,9.338734 0.959229,10.297574 10.3166913,10.297574 h 38.630367 c 9.357463,0 10.316691,-0.95884 10.316691,-10.297574 v -0.529141 c 0,9.338734 -0.959228,10.297574 -10.316691,10.297574 H 14.740307 c -9.3574623,0 -10.3166913,-0.95884 -10.3166913,-10.297574 z"/>
 <path style="opacity:0.4;fill:url(#radialGradient1363-3-3)" d="m 31.872785,22.427942 -4.235191,4.233125 H 14.740307 c -9.3574628,0 -10.3166919,0.958843 -10.3166919,10.297575 v 0.52914 c 0,-9.338732 0.9592291,-10.297574 10.3166919,-10.297574 h 12.897287 l 4.235191,-4.233125 h 21.497889 c 9.357463,0 10.316691,0.958839 10.316691,10.297574 v -0.529141 c 0,-9.338734 -0.959228,-10.297574 -10.316691,-10.297574 z"/>
</svg>
